brandFactory_export/1.Light/Prepago_1Light.svg

<?xml version="1.0" encoding="UTF-8"?>
<svg width="24px" height="24px" viewBox="0 0 24 24" version="1.1" xmlns="http://www.w3.org/2000/svg" xmlns:xlink="http://www.w3.org/1999/xlink">
    <title>1.Light/Prepago_1Light</title>
    <g id="Symbols" stroke="none" stroke-width="1" fill="none" fill-rule="evenodd">
        <g id="1.Light/Prepago_1Light" fill="#5CB615" fill-rule="nonzero">
            <path d="M18.4084034,8.95283847e-13 C19.6453782,8.95283847e-13 20.5361345,0.292436975 21.1344538,0.894117647 C21.7327731,1.49579832 22.0218487,2.38319328 22.0218487,3.61344538 L22.0218487,20 C22.0218487,21.2436975 21.7294118,22.1378151 21.1277311,22.7361345 C20.5327731,23.3277311 19.6420168,23.6134454 18.4084034,23.6134454 L9.88739496,23.6134454 C8.65378151,23.6134454 7.76302521,23.3277311 7.16806723,22.7361345 C6.56638655,22.1411765 6.27394958,21.2436975 6.27394958,20 L6.27327923,15.0867699 C4.65713669,15.0315863 3.39327206,14.5735767 2.5092437,13.7210084 C1.52773109,12.7764706 1.0302521,11.3613445 1.0302521,9.51260504 C1.0302521,7.66386555 1.52773109,6.2487395 2.5092437,5.30420168 C3.39271226,4.45217328 4.65847693,3.99420395 6.27077984,3.93854551 L6.27058824,3.61344538 C6.27058824,2.40336134 6.56302521,1.51932773 7.16134454,0.914285714 C7.77310924,0.299159664 8.66386555,8.95283847e-13 9.88739496,8.95283847e-13 L18.4084034,8.95283847e-13 Z M18.4084034,0.672268908 L9.88739496,0.672268908 C8.85210084,0.672268908 8.11932773,0.904201681 7.64201681,1.38487395 C7.17142857,1.85882353 6.94285714,2.58823529 6.94285714,3.61344538 L6.94330752,3.93833756 C8.55850889,3.99305342 9.82634546,4.45110245 10.7109244,5.30420168 C11.692437,6.2487395 12.189916,7.66386555 12.189916,9.51260504 C12.189916,11.3613445 11.692437,12.7764706 10.7109244,13.7210084 C9.82690063,14.5735722 8.56010017,15.0315816 6.94634828,15.086769 L6.94621849,20 C6.94621849,22.0907563 7.8,22.9411765 9.88739496,22.9411765 L18.4084034,22.9411765 C20.4991597,22.9411765 21.3495798,22.0907563 21.3495798,20 L21.3495798,3.61344538 C21.3495798,2.56806723 21.1243697,1.83193277 20.6605042,1.36806723 C20.1966387,0.904201681 19.4571429,0.672268908 18.4084034,0.672268908 Z M14.1529412,18.8033613 C14.7579832,18.8033613 15.1512605,19.1226891 15.1512605,19.805042 C15.1512605,20.1344538 15.0605042,20.3764706 14.8991597,20.5411765 C14.7243697,20.7193277 14.4655462,20.8067227 14.1529412,20.8067227 C13.8403361,20.8067227 13.5815126,20.7193277 13.4067227,20.5411765 C13.2453782,20.3764706 13.1546218,20.1344538 13.1546218,19.805042 C13.1546218,19.1226891 13.5478992,18.8033613 14.1529412,18.8033613 Z M6.61008403,4.60504202 C5.01344538,4.60504202 3.78991597,5.00168067 2.97310924,5.78823529 C2.12941176,6.60168067 1.69915966,7.85546218 1.69915966,9.51260504 C1.69915966,11.1697479 2.12605042,12.4235294 2.9697479,13.2369748 C3.78319328,14.0235294 5.00672269,14.4201681 6.60672269,14.4201681 C8.20672269,14.4201681 9.42689076,14.0235294 10.2403361,13.2369748 C11.0840336,12.4235294 11.5109244,11.1697479 11.5109244,9.51260504 C11.5109244,7.85546218 11.0840336,6.60168067 10.2403361,5.78823529 C9.4302521,5.00168067 8.20672269,4.60504202 6.61008403,4.60504202 Z M6.61008403,5.57983193 C6.79495798,5.57983193 6.94621849,5.73109244 6.94621849,5.91596639 L6.94640672,6.40032269 C7.40484034,6.44571429 7.82756303,6.58016807 8.16638655,6.78991597 C8.31092437,6.88067227 8.39159664,7.00504202 8.39159664,7.14285714 C8.39159664,7.34453782 8.22689076,7.5092437 8.02521008,7.5092437 C7.94453782,7.50588235 7.86386555,7.48235294 7.79327731,7.44201681 L7.78991597,7.43865546 C7.50272247,7.28328849 7.22871781,7.18562268 6.94596525,7.14103977 L6.9452521,9.127 L7.02882423,9.13996837 C7.83168506,9.26832447 8.73109244,9.66802721 8.73109244,10.8268908 C8.73109244,11.8290162 8.05752257,12.4943566 6.94677525,12.6227023 L6.94621849,13.1260504 C6.94621849,13.3109244 6.79495798,13.4621849 6.61008403,13.4621849 C6.42521008,13.4621849 6.27394958,13.3109244 6.27394958,13.1260504 L6.27319166,12.6331857 C5.699324,12.5834547 5.14834734,12.3834174 4.67058824,12.0571429 C4.54621849,11.9697479 4.48571429,11.8588235 4.48571429,11.7142857 C4.48907563,11.5058824 4.6605042,11.3378151 4.86890756,11.3411765 C4.95966387,11.3445378 5.04705882,11.3714286 5.12436975,11.4252101 C5.50643953,11.679051 5.89054667,11.8350988 6.27351887,11.8917675 L6.2732521,9.805 L6.2306991,9.79902013 C4.91874436,9.56551149 4.63697479,8.78349885 4.63697479,8.15462185 C4.63697479,7.17984187 5.26914743,6.51700735 6.27331076,6.40128271 L6.27394958,5.91596639 C6.27394958,5.73109244 6.42521008,5.57983193 6.61008403,5.57983193 Z M6.94757786,9.90202686 L6.94619574,11.8912223 C7.58840453,11.7943466 7.97478992,11.4184844 7.97478992,10.8605042 C7.97478992,10.4798719 7.84658625,10.0764479 6.94757786,9.90202686 Z M5.38991597,8.10756303 C5.38991597,8.44311767 5.49817224,8.83280044 6.27218634,9.02156003 L6.2730732,7.13694913 C5.72255155,7.23018775 5.38991597,7.58571649 5.38991597,8.10756303 Z" id="Prepago_1Light"></path>
        </g>
    </g>
</svg>

<svg width="24" height="24" viewBox="0 0 24 24" xmlns="http://www.w3.org/2000/svg"><path d="M18.408 0c1.237 0 2.128.292 2.726.894.599.602.888 1.49.888 2.72V20c0 1.244-.293 2.138-.894 2.736-.595.592-1.486.877-2.72.877h-8.52c-1.234 0-2.125-.285-2.72-.877-.602-.595-.894-1.492-.894-2.736v-4.913c-1.617-.055-2.88-.513-3.765-1.366-.981-.945-1.479-2.36-1.479-4.208 0-1.85.498-3.264 1.48-4.209.883-.852 2.148-1.31 3.76-1.365v-.326c0-1.21.293-2.094.891-2.699C7.773.3 8.664 0 9.887 0h8.521zm0 .672h-8.52c-1.036 0-1.769.232-2.246.713-.47.474-.7 1.203-.7 2.228l.001.325c1.616.055 2.883.513 3.768 1.366.981.945 1.479 2.36 1.479 4.209 0 1.848-.498 3.263-1.48 4.208-.883.853-2.15 1.31-3.764 1.366V20c0 2.09.854 2.941 2.941 2.941h8.521c2.091 0 2.942-.85 2.942-2.941V3.613c0-1.045-.226-1.781-.69-2.245-.463-.464-1.203-.696-2.252-.696zm-4.255 18.131c.605 0 .998.32.998 1.002 0 .33-.09.571-.252.736-.175.178-.433.266-.746.266s-.571-.088-.746-.266c-.162-.165-.252-.407-.252-.736 0-.682.393-1.002.998-1.002zM6.61 4.605c-1.597 0-2.82.397-3.637 1.183C2.13 6.602 1.7 7.855 1.7 9.513c0 1.657.427 2.91 1.27 3.724.814.787 2.038 1.183 3.638 1.183s2.82-.396 3.633-1.183c.844-.813 1.27-2.067 1.27-3.724 0-1.658-.426-2.911-1.27-3.725-.81-.786-2.033-1.183-3.63-1.183zm0 .975c.185 0 .336.151.336.336V6.4c.459.046.882.18 1.22.39.145.09.226.215.226.353a.367.367 0 01-.367.366.514.514 0 01-.232-.067l-.003-.003a2.608 2.608 0 00-.844-.298v1.986l.083.013c.803.128 1.702.528 1.702 1.687 0 1.002-.673 1.667-1.784 1.796v.503a.337.337 0 01-.337.336.337.337 0 01-.336-.336v-.493a3.357 3.357 0 01-1.603-.576.396.396 0 01-.185-.343.379.379 0 01.383-.373c.09.004.178.03.255.084.382.254.767.41 1.15.467V9.805l-.043-.006c-1.312-.233-1.594-1.016-1.594-1.644 0-.975.632-1.638 1.636-1.754v-.485c0-.185.152-.336.337-.336zm.338 4.322l-.002 1.99c.642-.098 1.029-.474 1.029-1.031 0-.381-.128-.785-1.027-.959zM5.39 8.108c0 .335.108.725.882.914l.001-1.885c-.55.093-.883.449-.883.97z" fill="#5CB615" fill-rule="nonzero"/></svg>
